packages/icons/svg/Fill/globe-2.svg

<svg width="24" height="24" viewBox="0 0 24 24" fill="none" xmlns="http://www.w3.org/2000/svg">
<g id="Icon/Fill/globe-2">
<path id="Mask" fill-rule="evenodd" clip-rule="evenodd" d="M4.962 15.7999C5.598 15.9609 6.287 16.0729 6.988 16.0729C8.068 16.0729 9.171 15.8099 10.125 15.0629C11.841 13.7209 11.841 12.0039 11.841 10.6239C11.841 9.73289 11.841 8.96289 12.213 8.27989C12.413 7.91389 12.839 7.65989 13.332 7.36489C13.634 7.18489 13.946 6.99789 14.247 6.76289C14.89 6.25989 15.368 5.61189 15.664 4.89689C17.064 5.62089 18.224 6.74389 18.989 8.11889C17.562 8.31789 15.534 8.78489 15.126 10.6529C15.018 11.1469 15.001 11.6119 14.987 12.0229C14.967 12.6059 14.95 13.0669 14.7 13.4879L14.601 13.6559C13.954 14.7389 13.222 15.9679 14.209 17.6849C14.328 17.8929 14.461 18.0929 14.592 18.2909C14.936 18.8079 15.105 19.0929 15.106 19.3719C14.15 19.7769 13.101 19.9999 12 19.9999C8.963 19.9999 6.316 18.2989 4.962 15.7999ZM12 1.99989C6.486 1.99989 2 6.48689 2 11.9999C2 17.5139 6.486 21.9999 12 21.9999C17.514 21.9999 22 17.5139 22 11.9999C22 6.48689 17.514 1.99989 12 1.99989Z" fill="#000000"/>
</g>
</svg>

<svg fill="none" height="24" viewBox="0 0 24 24" width="24" xmlns="http://www.w3.org/2000/svg"><path clip-rule="evenodd" d="m4.96187 15.7999c.636.161 1.325.273 2.026.273 1.08 0 2.183-.263 3.13703-1.01 1.716-1.342 1.716-3.059 1.716-4.439 0-.891 0-1.661.372-2.344.2-.366.626-.62 1.119-.915.302-.18.614-.367.915-.602.643-.503 1.121-1.151 1.417-1.866 1.4.724 2.56 1.847 3.325 3.222-1.427.199-3.455.666-3.863 2.534-.108.494-.125.959-.139 1.37-.02.583-.037 1.044-.287 1.465l-.099.168c-.647 1.083-1.379 2.312-.392 4.029.119.208.252.408.383.606.344.517.513.802.514 1.081-.956.405-2.005.628-3.106.628-3.03703 0-5.68403-1.701-7.03803-4.2zm7.03803-13.7999c-5.51403 0-10.00003 4.487-10.00003 10 0 5.514 4.486 10 10.00003 10 5.514 0 10-4.486 10-10 0-5.513-4.486-10-10-10z" fill="#6b7280" fill-rule="evenodd"/></svg>
